X:146
%%etbk:tnset id:51,pos:2,rep:3x,ant:
%%etbk:wsite http://www.thesession.org/tunes/display/1147
%%etbk:pldat 2014-12-28T14:45,2014-04-06T16:10,2014-02-11T19:06,2014-02-07T16:27,2014-02-06T18:39,2013-05-15T15:49,2013-05-02T18:12
T: Long Drop, The
Z: Piano Box Version by Martin Fleischmann
H: Created 2013-02-19 /  Last Modified 2013-02-19
M: 4/4
L: 1/8
R: reel
K: Gmaj
|: "G"!4!gedg !2!e!1!d!3!BA | !1!G!2!EEE !2!E!1!D!2!B,!1!D | !3!G2!3!G!4!A !2!BABc | "D"!4!d!2!B!5!eB d!1!G!2!B!1!d |
"G"!4!gedg e!1!d!3!BA | !1!G!2!EEE EDB,D | !3!G2GA !2!BdeB | "D"!4!dBAd "G"!2!B!1!GG2:|
|: "G"!5!g!2!BB!1!A !2!B!1!B!4!g!1!B | !1!B!4!gg!1!B !5!ag!2!e!1!d | "C"!3!c3!4!d !2!eeef | !4!g2!5!b!4!g !2!e!1!d!2!B!4!d |
"G"!5!g!2!BB!1!A !2!B!1!B!4!g!1!B | !1!B!4!gg!1!B !5!aged | "C"!3!c3d !2!e2!4!ge | "D"!1!d!3!BAc "G"BGG2:|


